svg/message_cog_outline.svg

<svg xmlns="http://www.w3.org/2000/svg" viewBox="0 0 24 24"><path d="M20 2H4c-1.1 0-2 .9-2 2v18l4-4h14c1.1 0 2-.9 2-2V4c0-1.1-.9-2-2-2m0 14H5.2L4 17.2V4h16zm-3.2-4.7-1.1-.8v-1l1.1-.8c.1-.1.1-.2.1-.3l-1-1.7c-.1-.1-.2-.2-.3-.1l-1.3.4c-.3-.2-.5-.4-.9-.5l-.2-1.3c0-.1-.1-.2-.2-.2h-2c-.1 0-.2.1-.2.2l-.2 1.3c-.3.2-.6.3-.9.5l-1.2-.5c-.1 0-.2 0-.3.1l-1 1.7c-.1.1 0 .2.1.3l1.1.8v1l-1.1.8c-.1.1-.1.2-.1.3l1 1.7c.1.1.2.2.3.1l1.2-.3c.3.2.5.4.8.5l.2 1.3c0 .1.1.2.3.2h2c.1 0 .2-.1.2-.2l.2-1.3c.3-.1.6-.3.8-.5l1.2.5c.1 0 .2 0 .3-.1l1-1.7c.2-.2.2-.3.1-.4m-4.8.2c-.8 0-1.5-.7-1.5-1.5s.7-1.5 1.5-1.5 1.5.7 1.5 1.5-.7 1.5-1.5 1.5"/></svg>

<?xml version="1.0" encoding="UTF-8"?><!DOCTYPE svg PUBLIC "-//W3C//DTD SVG 1.1//EN" "http://www.w3.org/Graphics/SVG/1.1/DTD/svg11.dtd"><svg xmlns="http://www.w3.org/2000/svg" xmlns:xlink="http://www.w3.org/1999/xlink" version="1.1" id="mdi-message-cog-outline" width="24" height="24" viewBox="0 0 24 24"><path d="M20 2H4C2.9 2 2 2.9 2 4V22L6 18H20C21.1 18 22 17.1 22 16V4C22 2.9 21.1 2 20 2M20 16H5.2L4 17.2V4H20V16M16.8 11.3L15.7 10.5V10 9.5L16.8 8.7C16.9 8.6 16.9 8.5 16.9 8.4L15.9 6.7C15.8 6.6 15.7 6.5 15.6 6.6L14.3 7C14 6.8 13.8 6.6 13.4 6.5L13.2 5.2C13.2 5.1 13.1 5 13 5H11C10.9 5 10.8 5.1 10.8 5.2L10.6 6.5C10.3 6.7 10 6.8 9.7 7L8.5 6.5C8.4 6.5 8.3 6.5 8.2 6.6L7.2 8.3C7.1 8.4 7.2 8.5 7.3 8.6L8.4 9.4V10.4L7.3 11.2C7.2 11.3 7.2 11.4 7.2 11.5L8.2 13.2C8.3 13.3 8.4 13.4 8.5 13.3L9.7 13C10 13.2 10.2 13.4 10.5 13.5L10.7 14.8C10.7 14.9 10.8 15 11 15H13C13.1 15 13.2 14.9 13.2 14.8L13.4 13.5C13.7 13.4 14 13.2 14.2 13L15.4 13.5C15.5 13.5 15.6 13.5 15.7 13.4L16.7 11.7C16.9 11.5 16.9 11.4 16.8 11.3M12 11.5C11.2 11.5 10.5 10.8 10.5 10S11.2 8.5 12 8.5 13.5 9.2 13.5 10 12.8 11.5 12 11.5Z" /></svg>
